X: 6
T: The Girl Of The House
R: jig
M: 6/8
L: 1/8
K: Dmix
AG |: ~F2D DAG | A2 A GEA | DAD AGE | ~F2 D DAG |
~F2F GFG | AGA =cde |d=cA GEA |1 DED DAG :|2 DED DAB ||
|: ~=c2c cAF | ~G2G GFG | A2d =cAG |Adc d2 e |
fed =cAG | ~F2 F GA=c | d=cA GEA | DED DAB |
~=c2c cAF | ~G2G GFG | A2d =cAG |Adc dga |
~f2 d =cAF | ~G2 G GA=c | d=cA GEA | DED DAG|]


Tune 1214	Setting 1214

